svg/linkedin.svg

<?xml version="1.0" encoding="UTF-8"?>
<svg width="38px" height="39px" viewBox="0 0 38 39" version="1.1" xmlns="http://www.w3.org/2000/svg" xmlns:xlink="http://www.w3.org/1999/xlink">
    <title>Group 14</title>
    <g id="Page-1" stroke="none" stroke-width="1" fill="none" fill-rule="evenodd">
        <g id="Home_1" transform="translate(-1049.000000, -4842.000000)">
            <g id="Group-14" transform="translate(1049.000000, 4842.212036)">
                <path d="M38,19 C38,29.4933003 29.4932778,38 18.9999498,38 C8.50622005,38 0,29.4933003 0,19 C0,8.50639843 8.50622005,0 18.9999498,0 C29.4932778,0 38,8.50639843 38,19" id="Fill-1" fill="#FFFFFF"></path>
                <path d="M20.8676803,16.9053674 C20.9600374,16.8069017 20.9959706,16.7767631 21.0218068,16.7395563 C22.280358,14.9181868 24.0781044,14.3826631 26.1755908,14.7024065 C28.5994451,15.0723155 30.150609,16.7550673 30.5465666,19.3298023 C30.6406065,19.9403287 30.6872305,20.5533095 30.6867356,21.1705115 C30.6853497,23.734055 30.6812911,26.2974022 30.6923077,28.8608475 C30.6939618,29.1495688 30.6222935,29.2342906 30.3239394,29.2307692 C28.9698635,29.2145581 27.6150946,29.2147545 26.2607216,29.2307692 C25.9644464,29.233996 25.8886205,29.1501579 25.8901053,28.8610438 C25.9011922,26.4701834 25.8973316,24.0794212 25.8948568,21.6887571 C25.8939659,21.1453797 25.85635,20.6054383 25.7023225,20.0793391 C25.2086623,18.3915805 23.2725287,17.7991176 21.8938044,18.9214103 C21.1489092,19.5274208 20.8576824,20.3289884 20.8633248,21.272315 C20.8754015,23.5276011 20.8668884,25.7827889 20.8668884,28.038075 C20.8668884,28.3339629 20.8502582,28.6307343 20.8719369,28.9248551 C20.8909428,29.1804928 20.7856181,29.2297747 20.5521021,29.2282039 C19.1726849,29.2189759 17.7934656,29.2179941 16.4143453,29.228793 C16.1640011,29.2307692 16.0741188,29.1802964 16.0769231,28.9073806 C16.0971833,26.8745504 16.1053994,24.8408367 16.1061913,22.8078101 C16.1065873,20.3059181 16.1016378,17.8043207 16.0840177,15.3027232 C16.0821369,15.0288256 16.1399467,14.9478344 16.4252342,14.9509759 C17.8046514,14.9662906 19.1838707,14.9640327 20.5630899,14.9524485 C20.8114543,14.9501905 20.8807469,15.0244079 20.8728278,15.2639456 C20.8557026,15.7794423 20.8676803,16.2958226 20.8676803,16.9053674" id="Fill-3" fill="#00D36C"></path>
                <path d="M11.6869618,21.9241568 C11.6869618,24.2313805 11.6825336,26.5388052 11.6923077,28.8462299 C11.6932879,29.1326861 11.6414141,29.2347695 11.3604462,29.2307692 C10.1132159,29.2121624 8.86562412,29.2164829 7.61830347,29.2280376 C7.38667886,29.230248 7.30859706,29.1658431 7.30886818,28.895262 C7.31492313,24.2425333 7.31383866,19.590106 7.30769231,14.9374778 C7.30742222,14.6951304 7.36056123,14.6141469 7.58929391,14.6164579 C8.85956916,14.628515 10.1298444,14.6300221 11.3997582,14.6153846 C11.6532529,14.6123384 11.6926553,14.7152255 11.6917516,14.9642043 C11.6839796,17.2843894 11.6873233,19.6041726 11.6869618,21.9241568" id="Fill-5" fill="#00D36C"></path>
                <path d="M10.2572825,7.30769231 C12.2391493,7.3094374 13.5267152,8.58736983 13.0569624,10.0861762 C12.7020523,11.2179049 11.2642168,11.8693742 9.6046161,11.6500686 C7.84194586,11.4171707 6.85930724,10.0167338 7.50886979,8.66334699 C7.91429786,7.81810103 8.95184266,7.30638786 10.2572825,7.30769231" id="Fill-7" fill="#00D36C"></path>
            </g>
        </g>
    </g>
</svg>

<?xml version="1.0" encoding="utf-8"?>
<!-- Generator: Adobe Illustrator 25.1.0, SVG Export Plug-In . SVG Version: 6.00 Build 0)  -->
<svg version="1.0" id="Layer_1" xmlns="http://www.w3.org/2000/svg" xmlns:xlink="http://www.w3.org/1999/xlink" x="0px" y="0px"
	 viewBox="0 0 38 39" style="enable-background:new 0 0 38 39;" xml:space="preserve">
<style type="text/css">
	.st0{fill-rule:evenodd;clip-rule:evenodd;fill:#FFFFFF;}
	.st1{fill-rule:evenodd;clip-rule:evenodd;fill:#00D877;}
</style>
<g id="Page-1">
	<g id="Home_1" transform="translate(-1049.000000, -4842.000000)">
		<g id="Group-14" transform="translate(1049.000000, 4842.212036)">
			<path id="Fill-1" class="st0" d="M38,19c0,10.49-8.51,19-19,19C8.51,38,0,29.49,0,19C0,8.51,8.51,0,19,0C29.49,0,38,8.51,38,19"
				/>
			<path id="Fill-3" class="st1" d="M20.87,16.91c0.09-0.1,0.13-0.13,0.15-0.17c1.26-1.82,3.06-2.36,5.15-2.04
				c2.42,0.37,3.98,2.05,4.37,4.63c0.09,0.61,0.14,1.22,0.14,1.84c0,2.56-0.01,5.13,0.01,7.69c0,0.29-0.07,0.37-0.37,0.37
				c-1.35-0.02-2.71-0.02-4.06,0c-0.3,0-0.37-0.08-0.37-0.37c0.01-2.39,0.01-4.78,0-7.17c0-0.54-0.04-1.08-0.19-1.61
				c-0.49-1.69-2.43-2.28-3.81-1.16c-0.74,0.61-1.04,1.41-1.03,2.35c0.01,2.26,0,4.51,0,6.77c0,0.3-0.02,0.59,0.01,0.89
				c0.02,0.26-0.09,0.3-0.32,0.3c-1.38-0.01-2.76-0.01-4.14,0c-0.25,0-0.34-0.05-0.34-0.32c0.02-2.03,0.03-4.07,0.03-6.1
				c0-2.5,0-5-0.02-7.51c0-0.27,0.06-0.35,0.34-0.35c1.38,0.02,2.76,0.01,4.14,0c0.25,0,0.32,0.07,0.31,0.31
				C20.86,15.78,20.87,16.3,20.87,16.91"/>
			<path id="Fill-5" class="st1" d="M11.69,21.92c0,2.31,0,4.61,0.01,6.92c0,0.29-0.05,0.39-0.33,0.38c-1.25-0.02-2.49-0.01-3.74,0
				c-0.23,0-0.31-0.06-0.31-0.33c0.01-4.65,0-9.31,0-13.96c0-0.24,0.05-0.32,0.28-0.32c1.27,0.01,2.54,0.01,3.81,0
				c0.25,0,0.29,0.1,0.29,0.35C11.68,17.28,11.69,19.6,11.69,21.92"/>
			<path id="Fill-7" class="st1" d="M10.26,7.31c1.98,0,3.27,1.28,2.8,2.78c-0.35,1.13-1.79,1.78-3.45,1.56
				c-1.76-0.23-2.75-1.63-2.1-2.99C7.91,7.82,8.95,7.31,10.26,7.31"/>
		</g>
	</g>
</g>
</svg>
